X:19
T:"Circus Jig" by Mickie Zekley 1992
D:
S:Original Tune
R:Jig
O:Mendocino, California
M:6/8
Q:300
F:http://larkcamp.com/meabc.txt
K:A
EFA cAE|dAE cAE|EFA cAE|BB/A/B cAF|EFA cAE|dAE cAE|EFA BAB|cAA A3:||:cde fec|age fed|cde fed|c/d/ec B3|cde fec|age fed|c/d/ec BAB |cAAA3:|
